<?xml version="1.0" encoding="UTF-8"?>
<map version="1.10" tiledversion="1.10.2" orientation="orthogonal" renderorder="right-down" width="31" height="20" tilewidth="16" tileheight="16" infinite="0" nextlayerid="7" nextobjectid="69">
 <tileset firstgid="1" source="ground.tsx"/>
 <tileset firstgid="1076" source="pole.tsx"/>
 <tileset firstgid="1077" source="decor_2.tsx"/>
 <tileset firstgid="1078" source="decor_3.tsx"/>
 <tileset firstgid="1079" source="decor_4.tsx"/>
 <tileset firstgid="1080" source="cushion.tsx"/>
 <tileset firstgid="1081" source="decor 5.tsx"/>
 <tileset firstgid="1082" source="loot.tsx"/>
 <layer id="1" name="floor" width="31" height="20">
  <data encoding="csv">
16,17,18,19,20,21,22,23,24,25,26,27,28,29,30,31,32,33,34,35,36,37,38,39,40,41,42,43,41,42,431,
431,89,90,91,92,93,94,95,96,97,98,99,100,101,89,90,91,92,93,94,95,96,97,98,99,100,101,102,103,104,474,
474,493,494,493,494,493,494,493,494,493,494,493,494,493,494,493,494,493,494,493,494,493,494,493,494,493,494,493,494,493,517,
517,536,537,536,537,536,537,536,537,536,537,536,537,536,537,536,537,536,537,536,537,536,537,536,537,536,537,536,537,536,560,
431,493,494,493,494,493,494,493,494,493,0,0,0,0,0,0,0,0,0,0,0,493,494,493,494,493,494,493,494,493,603,
474,536,537,536,537,536,537,536,537,536,0,0,0,0,0,0,0,0,0,0,0,536,537,536,537,536,537,536,537,536,646,
517,493,494,493,494,493,494,493,494,493,0,0,0,0,0,0,0,0,0,0,0,493,494,493,494,493,494,493,494,493,689,
560,536,537,536,537,536,537,536,537,536,537,536,537,536,537,536,537,536,537,536,537,536,537,536,537,536,537,536,537,536,732,
603,493,494,493,494,493,494,493,494,493,494,493,494,493,494,493,494,493,494,493,494,493,494,493,494,493,494,493,494,493,775,
646,536,537,536,537,536,537,536,537,536,537,536,537,536,537,536,537,536,537,536,537,536,537,536,537,536,537,536,537,536,818,
689,493,494,493,494,493,494,493,494,493,494,493,494,493,494,493,494,493,494,493,494,493,494,493,494,493,494,493,494,493,861,
732,536,537,536,537,536,537,536,537,536,537,536,537,536,537,536,537,536,537,536,537,536,537,536,537,536,537,536,537,536,904,
775,493,494,493,494,493,494,493,494,493,494,493,494,493,494,493,494,493,494,493,494,493,494,493,494,493,494,493,494,493,947,
818,536,537,536,537,536,537,536,537,536,537,536,537,536,537,536,537,536,537,536,537,536,537,536,537,536,537,536,537,536,990,
861,493,494,493,494,493,494,493,494,493,494,493,494,493,494,493,494,493,494,493,494,493,494,493,494,493,494,493,494,493,1033,
904,536,537,536,537,536,537,536,537,536,537,536,537,536,537,536,537,536,537,536,537,536,537,536,537,536,537,536,537,536,904,
947,493,494,493,494,493,494,493,494,493,494,493,494,493,494,493,494,493,494,493,494,493,494,493,494,493,494,493,494,493,947,
990,536,537,536,537,536,537,536,537,536,537,536,537,536,537,536,537,536,537,536,537,536,537,536,537,536,537,536,537,536,990,
1033,493,494,493,494,493,494,493,494,493,494,493,494,493,494,493,494,493,494,493,494,493,494,493,494,493,494,493,494,493,1033,
16,17,18,16,17,18,19,20,21,22,23,24,0,0,0,0,0,0,31,32,33,34,35,36,37,38,39,40,41,42,43
</data>
 </layer>
 <layer id="4" name="collision tiles" width="31" height="20">
  <data encoding="csv">
0,0,0,0,0,0,0,0,0,0,0,0,0,0,0,0,0,0,0,0,0,0,0,0,0,0,0,0,0,0,0,
0,0,0,0,0,0,0,0,0,0,0,0,0,0,0,0,0,0,0,0,0,0,0,0,0,0,0,0,0,0,0,
0,0,0,0,0,0,0,0,0,0,0,0,0,0,0,0,0,0,0,0,0,0,0,0,0,0,0,0,0,0,0,
0,0,0,0,0,0,0,0,0,0,0,0,0,0,0,0,0,0,0,0,0,0,0,0,0,0,0,0,0,0,0,
0,0,0,0,0,0,0,0,0,0,2147484026,377,2147484026,377,2147484026,377,2147484026,377,2147484026,377,378,0,0,0,0,0,0,0,0,0,0,
0,0,0,0,0,0,0,0,0,0,377,2147484026,377,2147484026,377,2147484026,377,2147484026,377,2147484026,377,0,0,0,0,0,0,0,0,0,0,
0,0,0,0,0,0,0,0,0,0,2147484026,377,2147484026,377,2147484026,377,2147484026,377,2147484026,377,2147484026,0,0,0,0,0,0,0,0,0,0,
0,0,0,0,0,0,0,0,0,0,0,0,0,0,0,0,0,0,0,0,0,0,0,0,0,0,0,0,0,0,0,
0,0,0,0,0,0,0,0,0,0,0,0,0,0,0,0,0,0,0,0,0,0,0,0,0,0,0,0,0,0,0,
0,0,0,0,0,0,0,0,0,0,0,0,0,0,0,0,0,0,0,0,0,0,0,0,0,0,0,0,0,0,0,
0,0,0,0,0,0,0,0,0,0,0,0,0,0,0,0,0,0,0,0,0,0,0,0,0,0,0,0,0,0,0,
0,0,0,0,0,0,0,0,0,0,0,0,0,0,0,0,0,0,0,0,0,0,0,0,0,0,0,0,0,0,0,
0,0,0,0,0,0,0,0,0,0,0,0,0,0,0,0,0,0,0,0,0,0,0,0,0,0,0,0,0,0,0,
0,0,0,0,0,0,0,0,0,0,0,0,0,0,0,0,0,0,0,0,0,0,0,0,0,0,0,0,0,0,0,
0,1097,0,0,0,0,0,0,0,0,0,0,0,0,0,0,0,0,0,0,0,0,0,0,0,0,0,0,0,1105,0,
0,0,0,0,0,0,0,0,0,0,0,0,0,0,0,0,0,0,0,0,0,0,0,0,0,0,0,0,0,0,0,
0,0,0,0,1094,0,0,0,0,0,0,0,0,0,0,0,0,0,0,0,0,0,0,0,0,0,1104,0,0,0,0,
0,0,0,0,0,0,0,0,1102,0,0,0,0,0,0,0,0,0,0,0,0,0,1089,0,0,0,0,0,0,0,0,
0,0,0,0,0,0,0,0,0,0,0,0,0,0,0,0,0,0,0,0,0,0,0,0,0,0,0,0,0,0,0,
0,0,0,0,0,0,0,0,0,0,0,0,479,398,479,398,479,398,0,0,0,0,0,0,0,0,0,0,0,0,0
</data>
 </layer>
 <objectgroup id="2" name="objects">
  <object id="1" gid="1076" x="166.872" y="321.362" width="34.3404" height="71.5106"/>
  <object id="2" gid="1076" x="278.574" y="320.628" width="34.3404" height="71.5106"/>
  <object id="3" gid="1077" x="113.638" y="103.851" width="25.9149" height="31.1064"/>
  <object id="4" gid="1078" x="90.7872" y="93.617" width="16.2979" height="21.3404"/>
  <object id="5" gid="1078" x="76.9574" y="116.989" width="16.2979" height="21.3404"/>
  <object id="7" gid="1080" x="35.1334" y="307.996" width="72.6809" height="76.9362"/>
  <object id="8" gid="1080" x="383.863" y="314.995" width="72.6809" height="76.9362"/>
  <object id="9" gid="1077" x="459.383" y="128.064" width="13.1489" height="15.149"/>
  <object id="10" gid="1077" x="443.426" y="147.213" width="14.2128" height="17.2766"/>
  <object id="11" gid="1078" x="438.66" y="123.372" width="16.2979" height="21.3404"/>
  <object id="12" gid="1079" x="75.9574" y="205.681" width="36.383" height="46.4681"/>
  <object id="13" gid="1079" x="387.128" y="209.745" width="36.383" height="46.4681"/>
  <object id="14" gid="1077" x="418.426" y="133.915" width="14.2128" height="17.2766"/>
  <object id="15" gid="1079" x="429.681" y="201.234" width="17.2341" height="25.1915"/>
  <object id="16" gid="1079" x="364.787" y="203.362" width="17.2341" height="25.1915"/>
  <object id="17" gid="1078" x="457.808" y="96.7766" width="16.2979" height="21.3404"/>
  <object id="19" gid="1079" x="122.234" y="194.851" width="17.2341" height="25.1915"/>
  <object id="20" gid="1079" x="48.8298" y="194.851" width="17.2341" height="25.1915"/>
  <object id="21" gid="1081" x="134.766" y="295.021" width="245.362" height="230.127"/>
  <object id="6" gid="1079" x="160.779" y="110.761" width="179.156" height="44.3404" rotation="359.605"/>
  <object id="40" gid="1079" x="460.629" y="248.742" width="20.8658" height="27.5026"/>
  <object id="41" gid="1079" x="349.512" y="299.489" width="20.8658" height="27.5026"/>
  <object id="42" gid="1079" x="125.718" y="298.025" width="20.8658" height="27.5026"/>
  <object id="44" gid="1079" x="15.6109" y="247.128" width="17.2341" height="25.1915"/>
 </objectgroup>
 <layer id="6" name="loot" width="31" height="20">
  <data encoding="csv">
0,0,0,0,0,0,0,0,0,0,0,0,0,0,0,0,0,0,0,0,0,0,0,0,0,0,0,0,0,0,0,
0,0,0,0,0,0,0,0,0,0,0,0,0,0,0,0,0,0,0,0,0,0,0,0,0,0,0,0,0,0,0,
0,0,0,0,0,0,0,0,0,0,0,0,0,0,0,0,0,0,0,0,0,0,0,0,0,0,0,0,0,0,0,
0,0,0,0,0,0,0,0,0,0,0,0,0,0,0,0,0,0,0,0,0,0,0,0,0,0,0,0,0,0,0,
0,0,0,0,0,0,0,0,0,0,0,0,0,0,0,0,0,0,0,0,0,0,0,0,0,0,0,0,0,0,0,
0,0,0,0,0,0,0,0,0,0,0,0,0,0,0,0,0,0,0,0,0,0,0,0,0,0,0,0,0,0,0,
0,0,0,0,0,0,0,0,0,0,0,0,0,0,0,0,0,0,0,0,0,0,0,0,0,0,0,0,0,0,0,
0,0,0,0,0,0,0,0,0,0,0,0,0,0,0,0,0,0,0,0,0,0,0,0,0,0,0,0,0,0,0,
0,0,0,0,0,0,0,0,0,0,0,0,0,0,0,0,0,0,0,0,0,0,0,0,0,0,0,0,0,0,0,
0,0,0,0,0,0,0,0,0,0,0,0,0,0,0,0,0,0,0,0,0,0,0,0,0,0,0,0,0,0,0,
0,0,0,0,0,0,0,0,0,0,0,0,0,0,0,0,0,0,0,0,0,0,0,0,0,0,0,0,0,0,0,
0,0,0,0,0,0,0,0,0,0,0,0,0,0,0,0,0,0,0,0,0,0,0,0,0,0,0,0,0,0,0,
0,0,0,0,0,0,0,0,0,0,0,0,0,0,0,0,0,0,0,0,0,0,0,0,0,0,0,0,0,0,0,
0,0,0,0,0,0,0,0,0,0,0,0,0,0,0,0,0,0,0,0,0,0,0,0,0,0,0,0,0,0,0,
0,1097,0,0,0,0,0,0,0,0,0,0,0,0,0,0,0,0,0,0,0,0,0,0,0,0,0,0,0,1105,0,
0,0,0,0,0,0,0,0,0,0,0,0,0,0,0,0,0,0,0,0,0,0,0,0,0,0,0,0,0,0,0,
0,0,0,0,1094,0,0,0,0,0,0,0,0,0,0,0,0,0,0,0,0,0,0,0,0,0,1104,0,0,0,0,
0,0,0,0,0,0,0,0,1102,0,0,0,0,0,0,0,0,0,0,0,0,0,1089,0,0,0,0,0,0,0,0,
0,0,0,0,0,0,0,0,0,0,0,0,0,0,0,0,0,0,0,0,0,0,0,0,0,0,0,0,0,0,0,
0,0,0,0,0,0,0,0,0,0,0,0,0,0,0,0,0,0,0,0,0,0,0,0,0,0,0,0,0,0,0
</data>
 </layer>
</map>
